img/circle-square.svg

<svg width="46" height="46" viewBox="0 0 46 46" fill="none" xmlns="http://www.w3.org/2000/svg">
<g id="Group 18">
<path id="Shape" fill-rule="evenodd" clip-rule="evenodd" d="M18.2318 28.7027H44.4318C45.0895 28.7027 45.6227 28.1673 45.6227 27.5068V1.19595C45.6227 0.535443 45.0895 0 44.4318 0H18.2318C17.5741 0 17.0409 0.535443 17.0409 1.19595V27.5068C17.0409 28.1673 17.5741 28.7027 18.2318 28.7027ZM43.2409 26.3108H19.4227V2.39189H43.2409V26.3108Z" fill="#3EE9E5"/>
<path id="Shape_2" fill-rule="evenodd" clip-rule="evenodd" d="M2.56471e-05 29.7696C0.0109695 38.4389 7.01575 45.459 15.6485 45.4524C19.7997 45.4493 23.7793 43.7886 26.7102 40.8363C29.6411 37.884 31.2827 33.8826 31.2732 29.7138C31.2535 21.0445 24.2416 14.0315 15.6089 14.0469C6.97612 14.0623 -0.0109182 21.1003 2.56471e-05 29.7696ZM3.38968 24.6706C5.4422 19.6912 10.282 16.4459 15.6485 16.4507C22.943 16.4638 28.8587 22.3885 28.8914 29.7138C28.9107 35.1029 25.6922 39.972 20.7394 42.0466C15.7865 44.1213 10.0766 42.9921 6.27679 39.1865C2.47699 35.381 1.33715 29.65 3.38968 24.6706Z" fill="#3EE9E5"/>
</g>
</svg>

<svg xmlns="http://www.w3.org/2000/svg" fill="none" viewBox="0 0 46 46"><g fill="#3EE9E5" fill-rule="evenodd" clip-rule="evenodd"><path d="M18.232 28.703h26.2c.657 0 1.19-.536 1.19-1.196V1.196c0-.66-.532-1.196-1.19-1.196h-26.2c-.658 0-1.191.535-1.191 1.196v26.31c0 .661.533 1.197 1.19 1.197ZM43.24 26.31H19.423V2.39H43.24v23.92Z"/><path d="M0 29.77c.011 8.669 7.016 15.689 15.649 15.682a15.603 15.603 0 0 0 11.061-4.616 15.737 15.737 0 0 0 4.563-11.122c-.02-8.67-7.031-15.682-15.664-15.667C6.976 14.062-.011 21.1 0 29.77Zm3.39-5.1a13.254 13.254 0 0 1 12.258-8.22c7.295.014 13.21 5.939 13.243 13.264.02 5.389-3.199 10.258-8.152 12.333a13.214 13.214 0 0 1-14.462-2.86A13.352 13.352 0 0 1 3.39 24.67Z"/></g></svg>
